src/16/actions/document-save-as.svg

<svg xmlns="http://www.w3.org/2000/svg" viewBox="0 0 16 16">
  <defs id="defs3051">
    <style type="text/css" id="current-color-scheme">
      .ColorScheme-Text {
        color:#5d656b;
      }
      </style>
  </defs>
 <path style="fill:currentColor;fill-opacity:1;stroke:none" 
     d="M 2 2 L 2 14 L 3 14 L 4 14 L 7 14 L 7 13 L 6 13 L 5 13 L 5 10 L 6 10 L 7 10 L 8 10 L 8 9 L 7 9 L 5 9 L 3.96875 9 L 3.96875 13 L 3 13 L 3 3 L 4 3 L 5 3 L 5 6 L 5 7 L 7 7 L 11 7 L 11 6 L 11 3 L 11.28125 3 L 13 4.71875 L 13 5 L 13 7 L 14 7 L 14 4.28125 L 11.71875 2 L 11.6875 2 L 11 2 L 4 2 L 3 2 L 2 2 z M 6 3 L 7.90625 3 L 7.90625 6 L 6 6 L 6 3 z M 12 8 L 11 9 L 10 10 L 8 12 L 8 13 L 8 14 L 10 14 L 11 13 L 12 12 L 13 11 L 14 10 L 12 8 z M 11.689453 9.6894531 L 12.28125 10.28125 L 10.59375 11.96875 L 10.59375 11.984375 L 9.3125 13.28125 L 8.71875 12.6875 L 11.689453 9.6894531 z "
     class="ColorScheme-Text"
     />
</svg>

<svg xmlns="http://www.w3.org/2000/svg" viewBox="0 0 16 16"><path d="M2 2v12h5v-1H5v-3h3V9H3.969v4H3V3h2v4h6V3h.281L13 4.719V7h1V4.281L11.719 2H2zm4 1h1.906v3H6V3zm6 5l-1 1-1 1-2 2v2h2l1-1 1-1 1-1 1-1-2-2zm-.31 1.69l.591.591-1.687 1.688v.015l-1.281 1.297-.594-.594 2.97-2.998z" fill="currentColor" color="#5d656b"/></svg>
